img/fullscript-leaf-pictogram-white.svg

<?xml version="1.0" encoding="UTF-8"?>
<svg width="63px" height="54px" viewBox="0 0 63 54" version="1.1" xmlns="http://www.w3.org/2000/svg" xmlns:xlink="http://www.w3.org/1999/xlink">
    <!-- Generator: Sketch 48.2 (47327) - http://www.bohemiancoding.com/sketch -->
    <title>Group 8</title>
    <desc>Created with Sketch.</desc>
    <defs></defs>
    <g id="06" stroke="none" stroke-width="1" fill="none" fill-rule="evenodd" transform="translate(-675.000000, -738.000000)">
        <g id="Page-1" transform="translate(649.000000, 707.000000)" fill="#FFFFFF">
            <g id="Group-8" transform="translate(26.450000, 31.320000)">
                <path d="M28.0301,17.58009 L28.0301,26.65709 L28.0531,26.68609 L28.0531,17.63287 C28.046775,17.61547 28.03585,17.59749 28.0301,17.58009 Z M28.0301,35.57749 L28.0301,46.00009 C28.03585,46.00009 28.046775,46.00647 28.0531,46.00647 L28.0531,35.60069 L28.0301,35.57749 Z" id="Fill-2"></path>
                <path d="M55.9406575,20.642664 C55.9343325,20.689064 55.9285825,20.747064 55.9285825,20.793464 C55.8889075,21.548044 54.7676575,38.396464 34.0734075,45.994464 C34.0619075,46.000264 34.0555825,46.000264 34.0446575,46.006064 L34.0446575,35.606664 L34.0734075,35.577664 L46.5681575,21.994064 C47.6951575,20.770264 47.6261575,18.850464 46.4071575,17.707864 C45.1881575,16.571064 43.2843325,16.640664 42.1521575,17.870264 L34.0734075,26.657264 L34.0446575,26.686264 L34.0446575,17.633044 C34.0555825,17.609844 34.0619075,17.591864 34.0734075,17.568664 C35.0739075,15.318264 39.8636575,6.235464 51.7086575,6.235464 C51.8236575,6.235464 51.9386575,6.235464 52.0530825,6.241264 C56.6881575,11.838264 55.9464075,20.555664 55.9406575,20.642664 Z M28.0531575,26.686264 L28.0301575,26.657264 L19.9450825,17.870264 C18.8180825,16.640664 16.9096575,16.565264 15.6964075,17.707864 C14.4774075,18.850464 14.4026575,20.770264 15.5348325,21.994064 L28.0301575,35.577664 L28.0531575,35.600864 L28.0531575,46.006064 C28.0468325,46.006064 28.0359075,46.000264 28.0301575,46.000264 C7.3301575,38.402264 6.2089075,21.548044 6.1744075,20.805064 C6.1680825,20.752864 6.1629075,20.694864 6.1629075,20.642664 C6.1514075,20.549864 5.3751575,11.873064 10.0441575,6.241264 C10.1649075,6.235464 10.2856575,6.235464 10.4064075,6.235464 C22.2968325,6.235464 27.0239075,15.295064 28.0301575,17.580264 C28.0359075,17.597664 28.0468325,17.615064 28.0531575,17.633044 L28.0531575,26.686264 Z M55.5490825,1.114064 C55.0321575,0.592064 54.3421575,0.273064 53.6119075,0.226664 C42.2780825,-0.475136 34.9468325,5.301664 31.0546575,10.736264 C27.1555825,5.301664 19.8243325,-0.480936 8.4910825,0.226664 C7.7556575,0.273064 7.0656575,0.592064 6.5481575,1.114064 C-0.7319175,8.456864 0.0679075,20.027864 0.1656575,21.158864 C0.2116575,21.983044 0.6825825,27.683864 4.3861575,34.226264 C7.9339075,40.496064 15.2530825,48.830664 30.0254075,53.013044 C30.1001575,53.035664 30.1806575,53.058864 30.2611575,53.082064 L30.2669075,53.082064 C30.3244075,53.099464 30.3761575,53.111064 30.4336575,53.122664 C30.5084075,53.140064 30.5825825,53.151664 30.6636575,53.163264 C30.7959075,53.186464 30.9281575,53.192264 31.0598325,53.192264 C31.1869075,53.192264 31.3134075,53.186464 31.4399075,53.163264 C31.5089075,53.151664 31.5779075,53.140064 31.6469075,53.128464 C31.7095825,53.116864 31.7734075,53.099464 31.8366575,53.082064 C31.9223325,53.058864 32.0091575,53.035664 32.0948325,53.006664 C59.3964075,45.257864 61.7654075,23.281664 61.9264075,21.222664 C61.9948325,20.549864 62.9959075,8.625064 55.5490825,1.114064 Z" id="Fill-4"></path>
                <path d="M31.6469075,53.128348 C31.7095825,53.116748 31.7734075,53.099348 31.8366575,53.081948 C31.9223325,53.058748 32.0091575,53.035548 32.0948325,53.006548 C31.9459075,53.065128 31.7964075,53.105148 31.6469075,53.128348 Z M34.0446575,35.606548 L34.0446575,46.006528 C34.0555825,46.000148 34.0619075,46.000148 34.0734075,45.994348 L34.0734075,35.577548 L34.0446575,35.606548 Z M34.0446575,17.632928 L34.0446575,26.686148 L34.0734075,26.657148 L34.0734075,17.568548 C34.0619075,17.591748 34.0555825,17.609728 34.0446575,17.632928 Z" id="Fill-6"></path>
            </g>
        </g>
    </g>
</svg>

<?xml version="1.0" encoding="utf-8"?>
<!-- Generator: Adobe Illustrator 22.0.1, SVG Export Plug-In . SVG Version: 6.00 Build 0)  -->
<svg version="1.1" id="Layer_1" xmlns="http://www.w3.org/2000/svg" xmlns:xlink="http://www.w3.org/1999/xlink" x="0px" y="0px"
	 viewBox="0 0 63 54" style="enable-background:new 0 0 63 54;" xml:space="preserve">
<style type="text/css">
	.st0{fill:#FFFFFF;}
</style>
<title>Group 8</title>
<desc>Created with Sketch.</desc>
<g id="_x30_6" transform="translate(-675.000000, -738.000000)">
	<g id="Page-1" transform="translate(649.000000, 707.000000)">
		<g id="Group-8" transform="translate(26.450000, 31.320000)">
			<path id="Fill-2" class="st0" d="M28,17.6v9.1l0,0L28,17.6C28,17.6,28,17.6,28,17.6z M28,35.6V46c0,0,0,0,0,0L28,35.6L28,35.6z"
				/>
			<path id="Fill-4" class="st0" d="M55.9,20.6c0,0,0,0.1,0,0.2c0,0.8-1.2,17.6-21.9,25.2c0,0,0,0,0,0V35.6l0,0L46.6,22
				c1.1-1.2,1.1-3.1-0.2-4.3c-1.2-1.1-3.1-1.1-4.3,0.2l-8.1,8.8l0,0v-9.1c0,0,0,0,0-0.1c1-2.3,5.8-11.3,17.6-11.3c0.1,0,0.2,0,0.3,0
				C56.7,11.8,55.9,20.6,55.9,20.6z M28.1,26.7L28.1,26.7l-8.1-8.8c-1.1-1.2-3-1.3-4.2-0.2c-1.2,1.1-1.3,3.1-0.2,4.3L28,35.6l0,0V46
				c0,0,0,0,0,0C7.3,38.4,6.2,21.5,6.2,20.8c0-0.1,0-0.1,0-0.2c0-0.1-0.8-8.8,3.9-14.4c0.1,0,0.2,0,0.4,0C22.3,6.2,27,15.3,28,17.6
				c0,0,0,0,0,0.1V26.7z M55.5,1.1c-0.5-0.5-1.2-0.8-1.9-0.9C42.3-0.5,34.9,5.3,31.1,10.7C27.2,5.3,19.8-0.5,8.5,0.2
				c-0.7,0-1.4,0.4-1.9,0.9c-7.3,7.3-6.5,18.9-6.4,20c0,0.8,0.5,6.5,4.2,13.1C7.9,40.5,15.3,48.8,30,53c0.1,0,0.2,0,0.2,0.1h0
				c0.1,0,0.1,0,0.2,0c0.1,0,0.1,0,0.2,0c0.1,0,0.3,0,0.4,0c0.1,0,0.3,0,0.4,0c0.1,0,0.1,0,0.2,0c0.1,0,0.1,0,0.2,0
				c0.1,0,0.2,0,0.3-0.1c27.3-7.7,29.7-29.7,29.8-31.8C62,20.5,63,8.6,55.5,1.1z"/>
			<path id="Fill-6" class="st0" d="M31.6,53.1c0.1,0,0.1,0,0.2,0c0.1,0,0.2,0,0.3-0.1C31.9,53.1,31.8,53.1,31.6,53.1z M34,35.6V46
				c0,0,0,0,0,0L34,35.6L34,35.6z M34,17.6v9.1l0,0L34,17.6C34.1,17.6,34.1,17.6,34,17.6z"/>
		</g>
	</g>
</g>
</svg>
